src/renderer/assets/icon/browsingOpen-default-icon.svg

<svg width="15px" height="14px" viewBox="0 0 15 14" version="1.1" xmlns="http://www.w3.org/2000/svg" xmlns:xlink="http://www.w3.org/1999/xlink">
    <g id="页面-1" stroke="none" stroke-width="1" fill="none" fill-rule="evenodd">
        <g id="1176" transform="translate(-283.000000, -1374.000000)" fill="#B5B6BF" fill-rule="nonzero">
            <g id="sidebarButton--openLocalFIle" transform="translate(283.000000, 1374.000000)">
                <path d="M14.4508687,2.57371939 L8.94018665,2.57371939 C8.66403886,2.57371939 8.43933703,2.34908561 8.43933703,2.07286976 L8.43933703,1.32108495 C8.43933703,1.01758097 8.19370976,0.771953694 7.89020577,0.771953694 L2.51274123,0.771953694 C2.20923724,0.771953694 1.96360997,1.01758097 1.96360997,1.32108495 L1.96360997,6.06561317 L0.549194554,6.06809979 C0.377095546,6.06809979 0.21513602,6.14907956 0.111121258,6.28637088 C0.00703844521,6.42362817 -0.0261700625,6.60168157 0.0210227656,6.76734984 L1.86602595,12.4313143 C1.99940439,12.9026982 2.42965191,13.2280463 2.91951142,13.2280463 L14.0632593,13.2280463 C14.5806069,13.2280463 15,12.8086532 15,12.2913056 L15,3.12281662 L15,3.12281662 C15,2.81931264 14.7543727,2.57371939 14.4508687,2.57371939 Z M13.4333671,8.47576913 L12.7431438,6.46058236 C12.6761144,6.22461822 12.4605313,6.06160392 12.214972,6.06160392 L3.53024283,6.06964942 L3.53024283,4.14031822 L13.4333671,4.14031822 L13.4333671,8.47576913 Z" id="icon--openLocalFile"></path>
            </g>
        </g>
    </g>
</svg>

<svg width="15" height="14" xmlns="http://www.w3.org/2000/svg">
    <path d="M14.45 2.574H8.94a.501.501 0 01-.5-.501V1.32a.549.549 0 00-.55-.549H2.513a.549.549 0 00-.55.55v4.744L.55 6.068a.55.55 0 00-.528.7l1.845 5.663c.133.472.564.797 1.054.797h11.143c.518 0 .937-.42.937-.937V3.123a.549.549 0 00-.55-.55zm-1.017 5.902l-.69-2.015a.55.55 0 00-.528-.4L3.53 6.07V4.14h9.903v4.336z" fill="#B5B6BF"/>
</svg>
